X:1
T: Montgomery's Rant (pipes)
T: 8x32R 3C (RSCDS Bk 10)
P: Lady Montgomery [2x]
C: Pipes version, arr. Matt Petrie
M: C
R: reel
L: 1/8
K: Bb
f|:"Bb"b2 bf defd|"Eb"b2 bd "F"cBcd|"Bb"b2 bf defd|"Cm"gccB "F"cdef :|
"Bb"B/B/B fB dBfd|"Bb"B/B/B fB "F"defb|"Bb"B/B/B fB dBfd|"Eb"edcB "F"cdef|
"Bb"B/B/B fB dBfd|"Bb"Bgfe defg|"Bb"fdec "Gm"dBc_A|"Eb"Bgfd "F"cd e |]
